packages/icons/svg/Social_SocialNetwork_Youtube_32px.svg

<svg xmlns="http://www.w3.org/2000/svg" viewBox="0 0 32 32"><path d="M14.52 18.23l3.84-2.22-3.84-2.22v4.44z"/><path d="M25 5H7a2 2 0 00-2 2v18a2 2 0 002 2h18a2 2 0 002-2V7a2 2 0 00-2-2zm-1.91 14.57a1.85 1.85 0 01-1.31 1.3 44.06 44.06 0 01-5.78.31 44.14 44.14 0 01-5.78-.31 1.89 1.89 0 01-1.31-1.3 19.86 19.86 0 01-.3-3.57 19.8 19.8 0 01.3-3.56 1.88 1.88 0 011.31-1.31 44.14 44.14 0 015.78-.3 44.06 44.06 0 015.78.31 1.85 1.85 0 011.31 1.31A19.17 19.17 0 0123.4 16a19.23 19.23 0 01-.31 3.57z"/></svg>

<svg xmlns="http://www.w3.org/2000/svg" viewBox="0 0 32 32"><defs></defs><g id="Icon"><polygon  points="14.52 18.23 18.36 16.01 14.52 13.79 14.52 18.23"/><path  d="M25,5H7A2,2,0,0,0,5,7V25a2,2,0,0,0,2,2H25a2,2,0,0,0,2-2V7A2,2,0,0,0,25,5ZM23.09,19.57a1.85,1.85,0,0,1-1.31,1.3,44.06,44.06,0,0,1-5.78.31,44.14,44.14,0,0,1-5.78-.31,1.89,1.89,0,0,1-1.31-1.3A19.86,19.86,0,0,1,8.61,16a19.8,19.8,0,0,1,.3-3.56,1.88,1.88,0,0,1,1.31-1.31A44.14,44.14,0,0,1,16,10.83a44.06,44.06,0,0,1,5.78.31,1.85,1.85,0,0,1,1.31,1.31A19.17,19.17,0,0,1,23.4,16,19.23,19.23,0,0,1,23.09,19.57Z"/></g></svg>
